X:3
T:The Banshee
R:reel
M:4/4
L:1/8
K:G
G2GD EDB,D | GFGB d2Bd | eged BAGA | BAGE EDDE |
G2GD EDB,D | GFGB d2Bd | eged BAGA | BAGE EDD2 ::
eaag efge | dBBA B2 (3Bcd | eBB2 gBfB | eBBA B2Bd |
eaag efge | dBBA B2Bd | eged BAGA | BAGE EDD2 :|
